svgs/gboard.svg

<?xml version="1.0" encoding="UTF-8" standalone="no"?>
<svg
   width="24"
   height="24"
   viewBox="0 0 24 24"
   fill="none"
   version="1.1"
   id="svg10"
   sodipodi:docname="gboard.svg"
   inkscape:version="1.1.1 (3bf5ae0d25, 2021-09-20)"
   xmlns:inkscape="http://www.inkscape.org/namespaces/inkscape"
   xmlns:sodipodi="http://sodipodi.sourceforge.net/DTD/sodipodi-0.dtd"
   xmlns="http://www.w3.org/2000/svg"
   xmlns:svg="http://www.w3.org/2000/svg">
  <defs
     id="defs14" />
  <sodipodi:namedview
     id="namedview12"
     pagecolor="#ffffff"
     bordercolor="#666666"
     borderopacity="1.0"
     inkscape:pageshadow="2"
     inkscape:pageopacity="0.0"
     inkscape:pagecheckerboard="true"
     showgrid="false"
     inkscape:zoom="24.542498"
     inkscape:cx="1.2631151"
     inkscape:cy="11.816238"
     inkscape:window-width="2560"
     inkscape:window-height="1011"
     inkscape:window-x="0"
     inkscape:window-y="32"
     inkscape:window-maximized="1"
     inkscape:current-layer="svg10" />
  <path
     id="path4"
     style="display:inline;fill:#000000"
     d="M 4.2128906 9.5722656 C 3.5427006 9.5722656 3 10.116909 3 10.787109 L 3 19.787109 C 3 20.457309 3.5427106 21 4.2128906 21 L 19.787109 21 C 20.457309 21 21 20.457309 21 19.787109 L 21 10.787109 C 21 10.116909 20.457309 9.5722656 19.787109 9.5722656 L 18.359375 9.5722656 L 18.359375 10.904297 C 18.359375 11.297645 18.242857 11.677278 18.033203 12 L 18.246094 12 C 18.357794 12 18.449219 12.089472 18.449219 12.201172 L 18.449219 13.416016 C 18.449219 13.527716 18.357794 13.617188 18.246094 13.617188 L 17.033203 13.617188 C 16.921503 13.617187 16.830078 13.527716 16.830078 13.416016 L 16.830078 13.087891 L 14.628906 14.832031 L 15.414062 14.832031 C 15.525763 14.832031 15.617187 14.921503 15.617188 15.033203 L 15.617188 16.246094 C 15.617188 16.357794 15.525763 16.449219 15.414062 16.449219 L 14.201172 16.449219 C 14.089472 16.449219 13.998047 16.357794 13.998047 16.246094 L 13.998047 15.332031 L 12.746094 16.324219 C 12.313083 16.667215 11.686917 16.667215 11.253906 16.324219 L 9.9550781 15.294922 L 9.9550781 16.246094 C 9.9550781 16.357794 9.8636531 16.449219 9.7519531 16.449219 L 8.5390625 16.449219 C 8.4273625 16.449219 8.3359375 16.357794 8.3359375 16.246094 L 8.3359375 15.033203 C 8.3359375 14.921503 8.4273625 14.832031 8.5390625 14.832031 L 9.3710938 14.832031 L 7.1230469 13.050781 L 7.1230469 13.416016 C 7.1230469 13.527716 7.0316219 13.617187 6.9199219 13.617188 L 5.7070312 13.617188 C 5.5953313 13.617188 5.5039063 13.527716 5.5039062 13.416016 L 5.5039062 12.201172 C 5.5039062 12.089472 5.5953313 12 5.7070312 12 L 5.9667969 12 C 5.7571449 11.677291 5.640625 11.297686 5.640625 10.904297 L 5.640625 9.5722656 L 4.2128906 9.5722656 z M 5.7070312 14.832031 L 6.9199219 14.832031 C 7.0316219 14.832031 7.1230469 14.921503 7.1230469 15.033203 L 7.1230469 16.246094 C 7.1230469 16.357794 7.0316219 16.449219 6.9199219 16.449219 L 5.7070312 16.449219 C 5.5953313 16.449219 5.5039063 16.357794 5.5039062 16.246094 L 5.5039062 15.033203 C 5.5039062 14.921503 5.5953313 14.832031 5.7070312 14.832031 z M 17.033203 14.832031 L 18.246094 14.832031 C 18.357794 14.832031 18.449219 14.921503 18.449219 15.033203 L 18.449219 16.246094 C 18.449219 16.357794 18.357794 16.449219 18.246094 16.449219 L 17.033203 16.449219 C 16.921503 16.449219 16.830078 16.357794 16.830078 16.246094 L 16.830078 15.033203 C 16.830078 14.921503 16.921503 14.832031 17.033203 14.832031 z M 7.3242188 17.662109 L 16.628906 17.662109 C 16.740606 17.662109 16.830078 17.753534 16.830078 17.865234 L 16.830078 19.078125 C 16.830078 19.189825 16.740606 19.28125 16.628906 19.28125 L 7.3242188 19.28125 C 7.2125288 19.28125 7.1230469 19.189825 7.1230469 19.078125 L 7.1230469 17.865234 C 7.1230469 17.753534 7.2125287 17.662109 7.3242188 17.662109 z " />
  <path
     id="path6"
     style="display:inline;fill:#000000"
     d="M 8.2578125 3 C 7.3642325 3 6.640625 3.7235975 6.640625 4.6171875 L 6.640625 10.904297 C 6.640625 11.213097 6.7813875 11.505466 7.0234375 11.697266 L 11.875 15.541016 C 11.9486 15.599316 12.0514 15.599316 12.125 15.541016 L 16.976562 11.697266 C 17.218563 11.505466 17.359375 11.213097 17.359375 10.904297 L 17.359375 4.6171875 C 17.359375 3.7235975 16.635788 3 15.742188 3 L 12 3 L 8.2578125 3 z M 12.078125 4.6171875 C 13.061025 4.6171875 13.881766 4.9798194 14.509766 5.5683594 L 13.472656 6.6054688 C 13.093456 6.2444587 12.615125 6.0585938 12.078125 6.0585938 C 11.128525 6.0585938 10.323356 6.6998431 10.035156 7.5644531 C 9.9623463 7.7828831 9.9199219 8.0151225 9.9199219 8.2578125 C 9.9199219 8.5005025 9.9593062 8.734705 10.035156 8.953125 C 10.323356 9.817735 11.128525 10.457031 12.078125 10.457031 C 12.569625 10.457031 12.9849 10.323869 13.3125 10.105469 C 13.6948 9.8475987 13.953016 9.4685213 14.041016 9.0195312 L 12.078125 9.0195312 L 12.078125 7.6523438 L 15.505859 7.6523438 C 15.542259 7.8738038 15.5625 8.1001838 15.5625 8.3398438 C 15.5625 9.4471438 15.168022 10.381625 14.482422 11.015625 C 13.881722 11.570825 13.061025 11.898438 12.078125 11.898438 C 10.655325 11.898438 9.425765 11.079805 8.828125 9.890625 C 8.579365 9.399165 8.4375 8.8463525 8.4375 8.2578125 C 8.4375 7.6692725 8.579365 7.1184131 8.828125 6.6269531 C 9.425765 5.4377431 10.655325 4.6171875 12.078125 4.6171875 z " />
</svg>

<svg xmlns="http://www.w3.org/2000/svg" width="24" height="24" fill="none" viewBox="0 0 24 24"><path d="M4.213 9.572c-.67 0-1.213.545-1.213 1.215v9C3 20.457 3.543 21 4.213 21h15.574c.67 0 1.213-.543 1.213-1.213v-9c0-.67-.543-1.215-1.213-1.215H18.36v1.332c0 .394-.116.773-.326 1.096h.213c.112 0 .203.09.203.201v1.215a.202.202 0 0 1-.203.201h-1.213a.202.202 0 0 1-.203-.201v-.328l-2.201 1.744h.785c.112 0 .203.09.203.201v1.213a.204.204 0 0 1-.203.203h-1.213a.204.204 0 0 1-.203-.203v-.914l-1.252.992a1.21 1.21 0 0 1-1.492 0l-1.299-1.03v.952a.204.204 0 0 1-.203.203H8.539a.204.204 0 0 1-.203-.203v-1.213c0-.111.091-.201.203-.201h.832l-2.248-1.781v.365a.202.202 0 0 1-.203.201H5.707a.202.202 0 0 1-.203-.201v-1.215c0-.112.091-.201.203-.201h.26a2.012 2.012 0 0 1-.326-1.096V9.572zm1.494 5.26H6.92c.112 0 .203.09.203.201v1.213a.204.204 0 0 1-.203.203H5.707a.204.204 0 0 1-.203-.203v-1.213c0-.111.091-.201.203-.201m11.326 0h1.213c.112 0 .203.09.203.201v1.213a.204.204 0 0 1-.203.203h-1.213a.204.204 0 0 1-.203-.203v-1.213c0-.111.092-.201.203-.201m-9.709 2.83h9.305c.112 0 .201.092.201.203v1.213c0 .112-.09.203-.201.203H7.324a.202.202 0 0 1-.201-.203v-1.213c0-.111.09-.203.201-.203z" style="display:inline;fill:#000"/><path d="M8.258 3c-.894 0-1.617.724-1.617 1.617v6.287c0 .31.14.601.382.793l4.852 3.844a.2.2 0 0 0 .25 0l4.852-3.844c.242-.192.382-.484.382-.793V4.617c0-.893-.723-1.617-1.617-1.617zm3.82 1.617c.983 0 1.804.363 2.432.951l-1.037 1.037a1.973 1.973 0 0 0-1.395-.546c-.95 0-1.755.64-2.043 1.505a2.133 2.133 0 0 0 0 1.389c.288.865 1.094 1.504 2.043 1.504.492 0 .907-.133 1.235-.352a1.69 1.69 0 0 0 .728-1.085h-1.963V7.652h3.428c.036.222.056.448.056.688 0 1.107-.394 2.042-1.08 2.676-.6.555-1.421.882-2.404.882a3.636 3.636 0 0 1-3.25-2.007 3.6 3.6 0 0 1 0-3.264 3.638 3.638 0 0 1 3.25-2.01" style="display:inline;fill:#000"/></svg>
